la/heart-broken-solid.svg

<svg xmlns="http://www.w3.org/2000/svg" viewBox="0 0 32 32" height="1em" width="1em">
  <path d="M 9.5 4 C 5.362182 4 2 7.4035211 2 11.5 C 2 12.928333 2.6517943 14.153437 3.2519531 15.048828 C 3.852112 15.94422 4.4648436 16.544922 4.4648438 16.544922 L 16 28.082031 L 27.535156 16.544922 C 27.535156 16.544922 30 14.357368 30 11.5 C 30 7.4035211 26.637818 4 22.5 4 C 20.930306 4 19.526877 4.5232797 18.390625 5.1484375 L 18.060547 5.3300781 L 16.003906 11 L 19.625 11 L 16 17.214844 L 16 13 L 12.453125 13 L 13.998047 5.359375 L 13.326172 5.0136719 C 12.24943 4.4594504 10.952075 4 9.5 4 z M 9.5 6 C 10.278067 6 10.996497 6.3086313 11.707031 6.6015625 L 10.007812 15 L 14 15 L 14 21 L 16.109375 21 L 22 10.894531 L 22 9 L 18.855469 9 L 19.648438 6.8164062 C 20.521997 6.3736841 21.486475 6 22.5 6 C 25.542182 6 28 8.4964789 28 11.5 C 28 13.044632 26.130859 15.121094 26.130859 15.121094 L 26.128906 15.123047 L 16 25.251953 L 5.8710938 15.123047 L 5.8691406 15.121094 C 5.8691406 15.121094 5.3974037 14.656655 4.9140625 13.935547 C 4.4307181 13.214485 4 12.271667 4 11.5 C 4 8.4964789 6.457818 6 9.5 6 z"/>
</svg>

<svg xmlns="http://www.w3.org/2000/svg" viewBox="0 0 32 32" height="1em" width="1em">
  <path d="M9.5 4C5.362 4 2 7.404 2 11.5c0 1.428.652 2.653 1.252 3.549a10.48 10.48 0 0 0 1.213 1.496L16 28.082l11.535-11.537S30 14.357 30 11.5C30 7.404 26.638 4 22.5 4c-1.57 0-2.973.523-4.11 1.148l-.33.182L16.005 11h3.621L16 17.215V13h-3.547l1.545-7.64-.672-.346C12.25 4.459 10.952 4 9.5 4zm0 2c.778 0 1.496.309 2.207.602L10.007 15H14v6h2.11L22 10.895V9h-3.145l.793-2.184C20.522 6.374 21.486 6 22.5 6c3.042 0 5.5 2.496 5.5 5.5 0 1.545-1.87 3.621-1.87 3.621l-.001.002L16 25.252 5.871 15.123l-.002-.002s-.472-.464-.955-1.185C4.431 13.214 4 12.272 4 11.5 4 8.496 6.458 6 9.5 6z"/>
</svg>
